X:1
T:Title
%%score { ( 1 4 ) | ( 2 3 ) }
L:1/8
M:3/4
K:D
V:1 treble nm="Grand Piano"
V:4 treble 
V:2 treble 
V:3 treble 
V:1
 z2 z2[Q:1/4=100] B>=c | [Bd]>c [Bd]>c [Bd]>c | [Bd]4 e>B | [A=c]4 d>A |[M:2/4] [GB]2 z2 | %5
[M:1/4] G>A |[M:3/4] [GB]>^A [GB]>A [GB]>A | [GB]4 [FA]G | [EG]F FA [EG]E | %9
[M:2/4] D2[K:bass] D,,2 |[M:1/4] D[K:treble]G |[M:3/4] G2 F2 G2 | A4[K:bass] z2 | %13
 [DA=c]2 [DGB]2 [Ece]>[EAc] | [GB]2 [FA]2 G>A | B>^A B>A B>A | B4 z2 | %17
 [=CA]4 [CFB]>[CDF][Q:1/4=98][Q:1/4=96][Q:1/4=94][Q:1/4=92][Q:1/4=90][Q:1/4=88][Q:1/4=85][Q:1/4=83][Q:1/4=81][Q:1/4=79][Q:1/4=77] | %18
[M:2/4] [B,DG]4 |] %19
V:2
 z2 z2 G>A | z z/ ^A/ z z/[K:treble] A/ z z/ A/ | G,2 G,,2[K:treble] =c>^G | %3
 D,2 D,,2[K:treble] B>F |[M:2/4][K:bass] G,,2 G,,,2 |[M:1/4] B,>D | %6
[M:3/4] z z/ F/ z z/[K:treble] F/ z z/ F/ | E,2 F,2 z E | z[K:treble] D DF[K:bass] z C | %9
[M:2/4] D,2 z2 |[M:1/4] [G,B,][G,B,D] |[M:3/4] [B,D]2 [A,D]2 [G,B,D]2 | D4 F,2 | G,2 G,2 =C,>C, | %14
 [D,D]2 [D,D]2 [G,B,]>[K:treble][G,=CG] | [G,DG]>[G,CG] [G,DG]>[G,CG] [G,DG]>[G,CG] | %16
 [DG]4[K:bass] E,>E, | E,2 ^D,2 =D,>D, |[M:2/4] G,,4 |] %19
V:3
 x6 | G,,2 B,,2[K:treble] D,2 | x4[K:treble] x2 | x4[K:treble] x2 |[M:2/4][K:bass] x4 |[M:1/4] x2 | %6
[M:3/4] G,,2 B,,2[K:treble] ^D,2 | z2 z2 G,2 | A,2[K:treble] z2[K:bass] A,,2 |[M:2/4] x4 | %10
[M:1/4] x2 |[M:3/4] x6 | F,2 z2 z2 | x6 | x11/2[K:treble] x/ | x6 | G,2 z2[K:bass] z2 | x6 | %18
[M:2/4] x4 |] %19
V:4
 x6 | x6 | x6 | x6 |[M:2/4] x4 |[M:1/4] x2 |[M:3/4] x6 | x6 | x6 |[M:2/4] x2[K:bass] x2 | %10
[M:1/4] x[K:treble] x |[M:3/4] x6 | z2[K:bass] D,2 D2 | x6 | x6 | x6 | z2 =F,2 [D^G=c]>[DG] | x6 | %18
[M:2/4] x4 |] %19

